!!!!SEGMENT: 050-1-ME-001.krn
!!!COM: Chopin, Fryderyk
!!!OTL: Mazourka No. 1.
!!!OPS: Op. 50
!!!PTL: Trois Mazourkas pour piano
!!!PPR: Mechetti
!!!PPP: Vienna
!!!AFR: mazurka
!!!NIFC-rismID: 1001029902
!!!NIFC-shelfmark: PL-Wbfc 671/n
!!!OMD: Vivace.
**kern	**kern	**dynam
*part1	*part1	*part1
*staff2	*staff1	*
*clefF4	*clefG2	*
*k[f#]	*k[f#]	*
*G:	*G:	*
*M3/4	*M3/4	*
*	*	*
=1-	=1-	=1-
*^	*^	*
*ped	*	*	*	*
8DD'	4ryy	8d'	4ryy	f
8r	.	8r	.	.
8AL	2D	(8f#L	[2c	.
8G	.	8e	.	.
8F#	.	8d	.	.
8AJ	.	8f#J	.	.
*Xped	*	*	*	*
=2	=2	=2	=2	=2
4ryy	[2.D	8aL	4c]	.
.	.	16r	.	.
.	.	16bJk	.	.
!	!	!LO:TX:t=P:diminuendolike accent:problem	!	!
2d\	.	2cc^< 2f# 2c	2ryy	.
*	*	*v	*v	*
=3	=3	=3	=3
8.DL]	2GG	8bL>) 8g 8d	.
.	.	16r	.
16DJk	.	16aJk 16c	.
2G	.	(>4g 4B	.
.	[4GG	4b 4d 4B	.
*v	*v	*	*
=4	=4	=4
4A#X: 4C#X: 4GG]:	4ee' 4g' 4e'	.
*ped	*	*
!	!LO:TX:t=P:diminuendolike accent:problem	!
2B: 2D: 2GG:	2dd^ 2g 2d)	.
*Xped	*	*
=5	=5	=5
*^	*^	*
*ped	*	*	*	*
8DD'	4ryy	8d'	4ryy	.
8r	.	8r	.	.
8AL	2D	(8f#L	[2c	.
8G	.	8e	.	.
8F#	.	8d	.	.
8AJ	.	8f#J	.	.
*Xped	*	*	*	*
=6	=6	=6	=6	=6
4ryy	[<2.D	8aL	4c]	.
.	.	16r	.	.
.	.	16bJk	.	.
!	!	!LO:TX:t=P:diminuendolike accent:problem	!	!
2d\	.	2cc^ 2f# 2c	2ryy	.
*	*	*v	*v	*
!!LO:LB:g=original
=7	=7	=7	=7
8.DL]	2GG	8bL> 8g 8d	.
.	.	16r	.
16DJk	.	16aJk 16c	.
[<2G	.	4g 4B	.
.	4C	4e 4c	.
*v	*v	*	*
=8	=8	=8
*^	*	*
4G]	4GG	4g 4d 4B	.
2ryy	4C	2e 2c 2G<	.
.	4AA	.	.
=9	=9	=9	=9
*	*	*^	*
8DD'<\	4ryy	8d'>) [8c 8F#<	4ryy	fz
8r	.	8r	.	.
8AL	2D	(8f#L	2c_	.
8G	.	8e	.	.
8F#	.	8d	.	.
8AJ	.	8f#J	.	.
=10	=10	=10	=10	=10
4ryy	[2.D	8aL	4c]	.
.	.	16r	.	.
.	.	16bJk	.	.
!	!	!LO:TX:t=P:diminuendolike accent:problem	!	!
2d\	.	2cc^ 2f# 2c	2ryy	.
*	*	*v	*v	*
=11	=11	=11	=11
8.DL]	2GG	8bL> 8g 8d	.
.	.	16r	.
16DJk	.	16aJk 16c	<
2G	.	4g 4B	.
.	[4GG	4b 4d 4B	[
*v	*v	*	*
=12	=12	=12
.	8qfn/	>
2B\ 2GG\]	2ee:/ 2f]	.
4GG#X\	4dd 4b 4fny	]
!!LO:LB:g=original
=13	=13	=13
.	8qdd/	p
(>8.AAL\	8.ccL\ 8.e	.
16BBJk	16bJk 16g#X 16d	.
4C\	4a\ 4e	.
4D\	4b\ 4fn 4d	.
=14	=14	=14
*	*^	*
4E	8.aL 8.c	2.e	.
.	16g#XJk 16B	.	.
4EE	4b 4d	.	.
4AA	4a 4c	.	.
=15	=15	=15	=15
4D	8.bL 8.d	4f#	.
.	16aJk 16c	.	.
4G	4g 4B	2ryy	.
4C\	4a 4e 4c	.	.
=16	=16	=16	=16
4D\	8.gL 8.B	2.d	.
.	16f#Jk 16A	.	.
4DD	4a 4c	.	.
4GG	4g 4B	.	.
*	*v	*v	*
=17	=17	=17
*ped	*	*
4EE)	8a#X>L/)	.
.	16r	f
.	(16bJk	.
!	!LO:TX:t=P:diminuendolike accent:problem	!
[2e [>2G [2E	(>2e^>)	.
=18	=18	=18
*^	*	*
*Xped	*	*	*
2.e_\ 2.E_<	4G]\	8f#L	p
.	.	8gJ	.
.	4G\	12bL/	.
.	.	12cc	.
.	.	12bJ	.
.	8F#L\	8aL	.
.	8GJ	8bJ	.
!!LO:LB:g=original
=19	=19	=19	=19
8AL	2.e_> 2.E_	8ccL/	.
8BJ	.	8ddJ	.
4c	.	4ee/	.
8BL	.	8ddL/	.
8AJ	.	8ccJ	.
=20	=20	=20	=20
.	.	(<16qb/LL	.
.	.	16qcc/JJ	.
2.e]\ 2.E]	8.GL/	8bL/)	.
.	.	16r	.
.	16F#Jk	16a#XJk	.
.	4G/	4b/	.
.	4B/	4g)	.
*v	*v	*	*
=21	=21	=21
*ped	*	*
4EE'	(<8a#XL/	f
.	8bJ)	.
!	!LO:TX:t=P:diminuendolike accent:problem	!
[2e [>2G [2E	(>2e^>)	.
=22	=22	=22
*^	*	*
*Xped	*	*	*
2.e_\ 2.E_<	4G]/	8f#L	p
.	.	8gJ	.
.	4G/	12bL/	.
.	.	12cc	.
.	.	12bJ	.
.	8F#L/	8aL	.
.	8GJ	8bJ	.
=23	=23	=23	=23
8AL	2.e_> 2.E_	8ccL/	.
8BJ	.	8ddJ	.
4c	.	4ee/	.
8BL	.	8ddL/	.
8AJ	.	8ccJ	.
=24	=24	=24	=24
*	*	*^	*
8GL	4e] 4E]	8bL/	2ryy	.
16r	.	16r	.	.
16AJk	.	16ccJk	.	.
4G/	4ryy	12bL/	.	<
.	.	12cc	.	.
.	.	12bJ	.	.
8EL 8AA	4AA	8gL 8c#	4c#X	.
8GJ	.	8eJ)	.	[
!!LO:LB:g=original
=25	=25	=25	=25	=25
*ped	*	*	*	*
8DD'	4ryy	8d'>	4ryy	f
8r	.	8r	.	.
8AL	2D	(8f#L	[2cn	.
8G	.	8e	.	.
8F#	.	8d	.	.
*Xped	*	*	*	*
8AJ	.	8f#J	.	.
=26	=26	=26	=26	=26
4ryy	[2.D	8aL	4c]	.
.	.	16r	.	.
.	.	16bJk	.	.
!	!	!LO:TX:t=P:diminuendolike accent:problem	!	!
2d\	.	2cc^ 2f# 2c	2ryy	]
*	*	*v	*v	*
=27	=27	=27	=27
8.DL]	2GG	8bL/ 8g 8d	.
.	.	16r	.
16DJk	.	16aJk) 16c	.
2G	.	(>4g 4B	.
.	[4GG	4b 4d 4B	.
*v	*v	*	*
=28	=28	=28
4A#: 4C#: 4GG]:	4ee' 4g' 4e'	.
*ped	*	*
!	!LO:TX:t=P:diminuendolike accent:problem	!
2B: 2D: 2GG:	2dd^ 2g 2d)	.
*Xped	*	*
=29	=29	=29
*^	*^	*
*ped	*	*	*	*
8DD'>	4ryy	8d'>	4ryy	.
8r	.	8r	.	.
8AL	2D	(8f#L	[2c	.
8G	.	8e	.	.
8F#	.	8d	.	.
8AJ	.	8f#J	.	.
*Xped	*	*	*	*
=30	=30	=30	=30	=30
4ryy	[<2.D	8aL	4c]	.
.	.	16r	.	.
.	.	16bJk	.	.
!	!	!LO:TX:t=P:diminuendolike accent:problem	!	!
2d\	.	2cc^ 2f# 2c	2ryy	.
*	*	*v	*v	*
!!LO:PB:g=original
=31	=31	=31	=31
8.DL]	2GG	8bL/ 8g 8d	.
.	.	16r	.
16DJk	.	16aJk 16c	.
[<2G	.	4g 4B	.
.	4C	4e 4c	.
=32	=32	=32	=32
4G]	4GG	4g 4d 4B	.
2ryy	4C\	2e 2c 2G<	.
.	4AA\	.	.
=33	=33	=33	=33
*	*	*^	*
8DD'<\	4ryy	8d'> 8c 8F#<)	4ryy	fz
8r	.	8r	.	.
8AL	2D	(8f#L	[2c	.
8G	.	8e	.	.
8F#	.	8d	.	.
8AJ	.	8f#J	.	.
=34	=34	=34	=34	=34
4ryy	[2.D	8aL	4c]	.
.	.	16r	.	.
.	.	16bJk	.	.
!	!	!LO:TX:t=P:diminuendolike accent:problem	!	!
2d\	.	2cc^ 2f# 2c	2ryy	.
*	*	*v	*v	*
=35	=35	=35	=35
8.DL]	2GG	8bL/ 8g 8d	<
.	.	16r	.
16DJk	.	16aJk 16c	.
[2G	.	4g 4B	.
.	[4GG	4b 4d 4B	[[
*v	*v	*	*
=36	=36	=36
.	8qfn	>
2GG\] 4B	2ee/: 2fny:	.
4GG#\	4dd 4b 4f	]
!!LO:LB:g=original
=37	=37	=37
.	8qdd/	p
(>8.AAL\	8.ccL 8.e	.
16BBJk	16bJk 16g#X 16d	.
4C\	4a 4e	.
4D\	4b 4fn 4d	.
=38	=38	=38
*	*^	*
4E	8.aL 8.c	2.e	.
.	16g#XJk 16B	.	.
4EE	4b 4d	.	.
4AA	4a 4c	.	.
=39	=39	=39	=39
4D	8.bL 8.d	4f#	.
.	16aJk 16c	.	.
4G	4g 4B	2ryy	.
4C\	4a 4e 4c	.	.
=40	=40	=40	=40
4D\	8.gL 8.B	2.d	.
.	16f#Jk 16A	.	.
4DD	4a 4c	.	.
4GG)	4g 4B)	.	.
=41	=41	=41	=41
(8A-XL	4ryy	4r	.
8GJ	.	.	.
4E-X	[2g	4e-X 4c	.
8CL	.	4e- 4c	.
8E-J	.	.	.
=42	=42	=42	=42
8GGL\	2.g]	4r	.
8DJ	.	.	.
4G	.	4d 4c	.
8F#L	.	4d 4B	.
8GJ	.	.	.
*	*v	*v	*
!!LO:LB:g=original
=43	=43	=43
8A-XL	4r	.
8GJ	.	.
4E-X	(>4g 4e-X 4c	.
8CL	4a [4e-	.
8FnJ	.	.
=44	=44	=44
*	*^	*
8BB-XL	[2.b-X	4e-]	.
8FnJ	.	.	.
2B-X	.	4d	.
.	.	4a-X 4d	.
=45	=45	=45	=45
8cL	4b-])	4r	.
8B-XJ	.	.	.
4G	(4b-	4g 4e-	.
8E-XL	4cc	[4g	.
8AJ	.	.	.
=46	=46	=46	=46
8DL	[2.dd	4g]	.
8AJ	.	.	.
4d	.	4f#	.
8c#XL	.	4a 4f#	.
8dJ	.	.	.
=47	=47	=47	=47
8e-XL	4.dd]	4r	.
8dJ	.	.	.
4B-X	.	4b-X 4g	.
.	8ddL	.	.
.	8qffn/	.	.
8GL	8.ee-::	4b-:: 4g	.
8B-J	.	.	.
.	16ddJk	.	.
=48	=48	=48	=48
8DL	4dd	4a 4g	.
!	!	!	!LO:HP:b=2
8AJ	.	.	<
!	!LO:TX:a:t=ten&colon;	!	!
([2d)	[2a	4f#X	.
.	.	4f#	[
!!LO:LB:g=original
=49	=49	=49	=49
!	!	!	!LO:HP:b=2
!	!	!LO:TX:t=P:diminuendolike accent:problem	!
8dL]	2.a_	4g 4e	>
8c#XJ	.	.	]
4A	.	4g 4e	.
!	!	!	!LO:HP:b=2
[4d	.	4f#	>
=50	=50	=50	=50
8dL]	2a]	4g 4e	.
8c#XJ	.	.	]
4A	.	4g 4e	.
8.dL	4ryy	4f#\	.
16cnJk	.	.	.
*	*v	*v	*
=51	=51	=51
8cL	4g 4fn 4d	.
8BJ	.	.
4G	4g 4f 4d	.
8.cL	4g 4e	.
16BJk	.	.
=52	=52	=52
8BL	4f#X 4e	.
8A#XJ	.	.
4F#	4f# 4e 4c#X	.
4B	4f# 4d#X	.
=53	=53	=53
*^	*^	*
*ped	*	*	*	*
2.E\)	4EE	8g#X'>L/ 8e 8dn	4ryy	f
.	.	16r	.	.
.	.	(>16aJk)	.	.
!	!	!	!LO:TX:t=P:diminuendolike accent:problem	!
.	2e	4b	2g#^ 2d	.
.	.	8.ccL	.	.
*Xped	*	*	*	*
.	.	16bJk	.	.
=54	=54	=54	=54	=54
*ped	*	*	*	*
!LO:N:vis=2.	!	!	!	!
&(>8AAL	2.AA	8.bL	4c	<
8EJ	.	.	.	.
.	.	16aJk	.	[
.	.	8qc/	.	.
[2cyy&)	.	2ee	[>2ee:\ 2g: 2c<:	.
*Xped	*	*	*	*
!!LO:LB:g=original
=55	=55	=55	=55	=55
!	!	!	!	!LO:HP:b
(>4c]	[2.D	8eeL])	[2.f#	.
.	.	8ddJ	.	.
4e	.	4cc	.	.
8.dL	.	8.bL	.	.
16cJk	.	16aJk	.	.
=56	=56	=56	=56	=56
4B	2.D_	4g#X	2f#]	.
4c	.	4a	.	.
4Gn	.	12eL:	[4c:	.
.	.	12f#	.	.
.	.	12eJ	.	.
=57	=57	=57	=57	=57
*ped	*	*	*	*
4F#)	2.D]	4d	2.c_	p
8AL	.	(>8f#L	.	.
8G	.	8e	.	.
8F#	.	8d	.	.
*Xped	*	*	*	*
8AJ	.	8f#J	.	.
=58	=58	=58	=58	=58
4ryy	[2.D	8aL	4c]	.
.	.	16r	.	.
.	.	16bJk	.	.
!	!	!LO:TX:t=P:diminuendolike accent:problem	!	!
2d\	.	2cc^ 2f# 2c	2ryy	.
*	*	*v	*v	*
=59	=59	=59	=59
8.DL]	2GG	8bL/ 8g 8d)	.
.	.	16r	.
16DJk	.	(>16aJk 16c	.
!LO:N:vis=1	!	!	!
2G	.	4g 4B	.
.	[4GG	4b 4d 4B	.
*v	*v	*	*
=60	=60	=60
4A#: 4C#: 4GG:]	4ee' 4g 4e	.
*ped	*	*
!	!LO:TX:t=P:diminuendolike accent:problem	!
2B^: 2D: 2GG:	2dd^ 2g 2d	.
*Xped	*	*
!!LO:LB:g=original
=61	=61	=61
*^	*^	*
*ped	*	*	*	*
8DD'>	4ryy	8d'>)	4ryy	.
8r	.	8r	.	.
8AL	2D	(8f#L	[2c	.
8G	.	8e	.	.
8F#	.	8d	.	.
*Xped	*	*	*	*
8AJ	.	8f#J	.	.
=62	=62	=62	=62	=62
4ryy	[2.D	8aL	4c]	.
.	.	16r	.	.
.	.	16bJk	.	.
!	!	!LO:TX:t=P:diminuendolike accent:problem	!	!
2d\	.	2cc^ 2f# 2c	2ryy	.
*	*	*v	*v	*
=63	=63	=63	=63
8.DL]	2GG	8bL/ 8g 8d	.
.	.	16r	.
16DJk	.	16aJk 16c	.
[2G	.	4g 4B	.
.	4C	4e 4c	.
=64	=64	=64	=64
4G]	4GG	4g 4d 4B	.
4C\	2ryy	2e 2c 2G<	.
4AA\	.	.	.
=65	=65	=65	=65
*	*	*^	*
8DD'<\	4ryy	8d'> 8c 8F#<	4ryy	fz
8r	.	8r)	.	.
8AL	2D	8f#L	[2c	.
8G	.	8e	.	.
8F#	.	8d	.	.
8AJ	.	8f#J	.	.
=66	=66	=66	=66	=66
4ryy	[2.D	8aL	4c]	.
.	.	16r	.	.
.	.	16bJk	.	.
!	!	!LO:TX:t=P:diminuendolike accent:problem	!	!
2d\	.	2cc^ 2f# 2c	2ryy	.
*	*	*v	*v	*
!!LO:PB:g=original
=67	=67	=67	=67
8.DL]	2GG	(>8bL/ 8g 8d	<
.	.	16r	.
16DJk	.	16aJk 16c	.
2G	.	4g 4B	.
.	[>4GG	4b 4d 4B	[[
*v	*v	*	*
=68	=68	=68
.	8qfn/	.
2B <2GG]	2ee:/ 2fny:	>
4GG#X\	4dd 4b 4fny	]
=69	=69	=69
*	*	*^
.	8qdd/	.	p
(>8.AAL\	8.ccL 8.e	.	.
16BBJk	16bJk 16g#X 16d	.	.
4C\	4a 4e	.	.
4D\	4b 4fn 4d	.	.
*	*	*v	*v
=70	=70	=70
*	*^	*
4E\	8.aL 8.c	2.e	.
.	16g#XJk 16B	.	.
4EE	4b 4d	.	.
4AA	4a 4c	.	.
=71	=71	=71	=71
4D	8.bL 8.d	4f#	.
.	16aJk 16c	.	.
4G	4g 4B	2ryy	.
4C\	4a 4e 4c	.	.
=72	=72	=72	=72
4D\	8.gL 8.B	2.d	.
.	16f#Jk 16A	.	.
4DD	4a 4c	.	.
[>4GG)	4g 4B)	.	.
*	*v	*v	*
!!LO:LB:g=original
=73	=73	=73
*^	*	*
*	*^	*	*
*ped	*	*	*	*
!LO:TX:t=P:diminuendolike accent:problem	!	!	!	!
2.B-^>/	4E-X\	2.GG]	(4e-X	.
.	4E-\	.	4e-	.
.	4E-\	.	4e-	.
*Xped	*	*	*	*
=74	=74	=74	=74	=74
!LO:TX:t=P:diminuendolike accent:problem	!	!	!	!
2.Bn<^>/	8.E-L/	2.GG	8.e-XL	.
.	16DJk	.	16dJk	.
.	4C#X/	.	4c#X	.
.	4D/	.	4d	.
*	*v	*v	*	*
=75	=75	=75	=75
*	*	*^	*
!	!	!	!LO:TX:t=P:diminuendolike accent:problem	!
8.E-XL	4GG	8.e-XL	4B-X^	.
16FnJk	.	16fnJk	.	.
!	!	!	!LO:TX:t=P:diminuendolike accent:problem	!
4G	4GG	4g	4B-^	.
!	!	!	!LO:TX:t=P:diminuendolike accent:problem	!
8.FL	4GG	8.fL	4B-^	.
16E-Jk	.	16e-Jk	.	.
=76	=76	=76	=76	=76
!	!	!	!LO:TX:t=P:diminuendolike accent:problem	!
8.E-XL	2.GG	8.e-L	2.Bn^	.
16DJk	.	16dJk	.	.
4C#X	.	4c#X	.	.
4D	.	4d	.	.
*ped	*	*	*	*
.	.	.	.	.
=77	=77	=77	=77	=77
.	8qDD/	.	.	.
4ryy	2.D	8g#L/) 8fn 8B	4ryy	.
.	.	16r	.	.
.	.	(>16aJk 16f#X 16c	.	.
*Xped	*	*	*	*
4G#X	.	4b 4fn	2d	<
4A	.	4cc 4f#X	.	.
=78	=78	=78	=78	=78
8A#XL	2G	8.cc#XL	4g	.
8BJk	.	.	.	.
.	.	16ddJk	.	.
[2d	.	4.gg/ 4.b	2ryy	[
.	4G	.	.	.
.	.	8bM 8g	.	.
*	*	*v	*v	*
!!LO:LB:g=original
=79	=79	=79	=79
8BL	2.d] 2.D	8g#L/ 8fn	.
16r	.	16r	.
16cJk	.	16aJk 16f#X	.
4G#X	.	4b 4fn	<
4A	.	4cc 4f#X	.
=80	=80	=80	=80
8.c#XL	2G	8.eeL/ 8.a#X	.
16dJk	.	16ddJk 16b	.
.	.	8qb/	.
*ped	*	*	*
4g	.	8.bbL/ 8.b	.[
.	.	16ggJk	.
4r	4ryy	12ddL/	.
.	.	12b	.
*Xped	*	*	*
.	.	12gJ)	.
=81	=81	=81	=81
*	*	*^	*
*ped	*	*	*	*
4E-X	2.GG	2.b-	(>4ee- 4e-X	>
4E-	.	.	4ee- 4e-	]
4E-	.	.	4ee- 4e-	.
*Xped	*	*	*	*
=82	=82	=82	=82	=82
8.E-XL	2.GG	8.ee-L 8.e-	2.bn	>
16DJk	.	16ddJk 16d	.	]
4C#X	.	4cc# 4c#	.	.
4D	.	4dd 4d	.	.
=83	=83	=83	=83	=83
8.E-XL	4GG	8.ee-L 8.e-X	4b-	>
16FnJk	.	16ffnJk 16fn	.	]
!	!	!LO:TX:t=P:diminuendolike accent:problem	!	!
4G^	4GG	4gg/ 4g	4b-/	.
8.FL	4GG	8.ffL 8.f	4b-	>
16E-Jk	.	16ee-Jk 16e-	.	]
=84	=84	=84	=84	=84
8.E-XL	2.GG	8.ee-L 8.e-	2.bn	<
16DJk	.	16ddJk 16d	.	.
4C#X	.	4cc# 4c#	.	[
[<4D	.	4dd 4d)	.	.
*	*	*v	*v	*
!!LO:LB:g=original
=85	=85	=85	=85
*ped	*	*	*
2.D_<	8DDL	8g#X'>L/ 8fn	.
.	16r	16r	<
.	&(>16cJk	16aJk 16f#X	.
*Xped	*	*	*
.	4G#X&)	(>4b 4fn	.
.	4A	4cc 4f#X	.
=86	=86	=86	=86
*ped	*	*	*
8.B-L	4D]	8.cc#L/ 8.g	.
16c#XJk	.	16eeJk 16b-	.
4e>\	2ryy	4gg/ 4cc#	[
4g>\	.	4bb-/ 4ee	.
*v	*v	*	*
=87	=87	=87
8.e>L	8.ggL/ 8.cc#X	.
16c#X>Jk	16eeJk 16b-X	>
4B-X	4cc# 4g	.
*Xped	*	*
4G	4b- 4e	.]
=88	=88	=88
*^	*	*
*	*^	*	*
8.A#L	4ryy	2.D\	8.eeL 8.g 8.e	.
16BJk	.	.	16ddJk 16g 16d	.
*ped	*	*	*	*
4ryy	2An/	.	4cc 4f# 4d	.
4d\	.	.	4f# 4c	.
*Xped	*	*	*	*
*v	*v	*v	*	*
=89	=89	=89
*	*^	*
!	!LO:TX:a:t=ten&colon;	!	!
4GG'\	[2.g)	4B\	.
(<8BBL\	.	4fn 4d 4G</	p
8AA	.	.	.
8GG	.	4f 4d 4G</	.
8BBJ	.	.	.
=90	=90	=90	=90
8.CL	2.g_	4e- 4d 4G</	.
.	.	.	<
16E-XJk	.	.	.
2G)	.	4e-\ 4c	[
.	.	4e-\ 4c	.
!!LO:LB:g=original
=91	=91	=91	=91
*ped	*	*	*
4GG'\	2g]	4d 4c	.
(>8DL	.	4d 4B	.
8B	.	.	.
8G	4ryy	(>4b\ 4g	.
*Xped	*	*	*
8eJ	.	.	.
=92	=92	=92	=92
*ped	*	*	*
8.dL	2ryy	4cc\ 4g\	.
16AJk	.	.	.
2D)	.	4cc\ 4f#\	.
.	12ccL	4f# 4d	.
.	12dd	.	.
*Xped	*	*	*
.	12ccJ	.	.
*	*v	*v	*
=93	=93	=93
4GG'\	4b 4g 4d	.
(>8BBL\	4g 4fn 4d	.
8AA	.	.
8GG	4g 4f 4d	.
8BBJ	.	.
=94	=94	=94
*	*^	*
!	!	!	!LO:HP:b=2
8.CL	[2.g	4e-X 4d	<
16E-XJk	.	.	.
2G)	.	4e- 4c	[
.	.	4e- 4c	.
=95	=95	=95	=95
4GG'\	2g]	4d 4c	.
(8DL	.	4d 4B	.
8B	.	.	.
8G	4ryy	4b 4g	.
8eJ	.	.	.
=96	=96	=96	=96
*ped	*	*	*
8.dL	4cc 4g	2ryy	.
16AJk	.	.	.
2D)	4cc 4f#	.	.
*Xped	*	*	*
.	12ccL	4f# 4d	.
.	12dd	.	.
.	12ccJ	.	.
=97	=97	=97	=97
*ped	*	*	*
4GG'\	2b	4g 4d	.
(8DL	.	4g 4d	.
8B	.	.	.
8G	4ryy	4b\ 4g	.
*Xped	*	*	*
8eJ	.	.	.
!!LO:LB:g=original
=98	=98	=98	=98
*ped	*	*	*
8.dL\	4b\ 4f# 4c	2ryy	.
16AJk	.	.	.
2D)	4a\ 4f# 4c	.	.
.	12aL	4f# 4c	.
*Xped	*	*	*
.	12b	.	.
.	12aJ	.	.
*	*v	*v	*
=99	=99	=99
*ped	*	*
4GG'\	4g 4c	>
(8DL	4d 4B	.
8B	.	.
8G	4d 4B	.
*Xped	*	*
8eJ	.	.
=100	=100	=100
*	*^	*
*ped	*	*	*
8dL	4d 4c 4F#	2ryy	.
8AJ	.	.	.
2D)	4d 4c 4F#	.	.
*Xped	*	*	*
.	12dL	4c 4F#	.
.	12e	.	.
.	[<12dJ	.	.
*	*v	*v	*
=101	=101	=101
*^	*	*
*ped	*	*	*
4G	(<8BL	2.d_	.
.	8DJ	.	.
4G	4GG)	.	.
4G	(<8BL	.	.
.	8DJ	.	.
=102	=102	=102	=102
4G	2GG)	2d]	.
*Xped	*	*	*
4G	.	.	.
4ryy	4CC	4e- 4c< 4G<	.
=103	=103	=103	=103
.	.	8qfn/	.
4GGG\	2G<::	8e-XL::/ 8c	.
*ped	*	*	*
.	.	8dJ	.
4r	.	4d/ 4B)	.
4G\	4d'>	4gg' 4b' 4g'	f
*v	*v	*	*
=104	=104	=104
*clefG2	*	*
!LO:TX:t=P:diminuendolike accent:problem	!	!
2.g 2.dd^	2.ggg 2.bb 2.gg	.
*Xped	*	*
.	.	.
==	==	==
*-	*-	*-
!!title: @{OTL}; @{OPS} @{ONM} publisher: @{PPR}
!!!RDF**kern: > = above
!!!RDF**kern: < = below
!!!RDF**dynam: > = dimin:
!!!ENC: Leszek Kubiak
!!!END: 2018-06-15
!!!EED: Marta Lawrence
!!!EST: revision finished 2018-06-16
!!!EED2: Jacek Iwaszko
!!!EST2: revision finished 2018-11-02
!!!EED3: Leszek Kubiak
!!!EST3: 2019-05-21
!!!rism-genre: Mazurka
!!!rism-key: G major
!!!rism-opus: op.  50, no. 1
!!!rism-title: Mazurka in G major op.  50, no. 1
!!!rism-permalink: https://opac.rism.info/search?id=1001029902&View=rism
!!!rism-773a-OPR: 1001029901
!!!rism-parent-permalink: https://opac.rism.info/search?id=1001029901&View=rism
